X: 7364
T:Lay Dee at Dee
R:Reel
O:Shetland
M:4/4
K:D
defe d2d2 | ABAG FE[D2A2] | d2ef gfec \
|1 efed cBA2 :|2 e2d2 d3 :|
|: e | \
f2df afdf | afdf g3f \
|1 e2ce eece | edcB A3 \
:|2 efgf edcB | A2d2 d3 :|
